src/bright/hiso font bright_a.svg

<svg xmlns="http://www.w3.org/2000/svg" width="90" height="126" viewBox="0 0 90 126"><path fill="#000101" d="M36 9l-36 18v72l36 18v-36l36 18v-72l-36-18zm0 39.35l29.3 14.65-29.3 14.65v-29.3zm33 45.8l-29.65-14.82 29.65-14.799v29.619zm0-32.681l-33-16.469 33-16.479v32.948z"/><text transform="translate(0 -18)" fill="#F80071" font-family="'MyriadPro-Regular'" font-size="72">Letters 1-16</text></svg>

<svg xmlns="http://www.w3.org/2000/svg" width="90" height="126"><path fill="#000101" d="M36 9L0 27v72l36 18V81l36 18V27L36 9zm0 39.35L65.3 63 36 77.65v-29.3zm33 45.8L39.35 79.33 69 64.531V94.15zm0-32.681L36 45l33-16.479v32.948z"/><text transform="translate(0 -18)" fill="#F80071" font-family="'MyriadPro-Regular'" font-size="72">Letters 1-16</text></svg>
